X:2
T:The Monsignor's Blessing
L:1/8
M:C|
Z:Transcribed by Brad Maloney
R:Reel
K:D
DE|.F~F2D E~A,3|DEFD E~A,3 |DEFD (3EFE dB|AFEG FD :||D2||
dcdf ecAd | (3B cd Ad BdAd | dcdf ecAd |1 (3Bcd ec dcdA :|2 (3Bcd ec d2 |]

